packages/dnb-eufemia/assets/icons/facebook_medium.svg

<svg width="24" height="24" viewBox="0 0 24 24" fill="none" xmlns="http://www.w3.org/2000/svg">
<path d="M18 8.00689H13.8303V6.09773C13.775 5.53519 14.2295 4.99525 14.8091 4.99822H17.7455V1H13.5073C9.66069 1 8.93638 3.99867 8.93638 5.85784V8.00689H6V12.0051H8.93638V23H13.8303V12.0051H17.5987L18 8.00689Z" stroke="black" stroke-width="1.5" stroke-linecap="round" stroke-linejoin="round"/>
</svg>

<svg width="24" height="24" viewBox="0 0 24 24" fill="none" xmlns="http://www.w3.org/2000/svg"><path d="M18 8.007h-4.17v-1.91c-.055-.562.4-1.102.98-1.099h2.935V1h-4.238c-3.846 0-4.57 2.999-4.57 4.858v2.149H6v3.998h2.936V23h4.894V12.005h3.77l.4-3.998Z" stroke="#000" stroke-width="1.5" stroke-linecap="round" stroke-linejoin="round"/></svg>
